__todo__/pycharm.svg

<svg height="256" preserveAspectRatio="xMidYMid" viewBox="0 0 256 256" width="256" xmlns="http://www.w3.org/2000/svg" xmlns:xlink="http://www.w3.org/1999/xlink"><linearGradient id="a" x1="-46.685879%" x2="90.513929%" y1="50%" y2="50%"><stop offset="0" stop-color="#21d789"/><stop offset="1" stop-color="#07c3f2"/></linearGradient><linearGradient id="b" x1="-19.159792%" x2="105.922196%" y1="105.481057%" y2="-7.577138%"><stop offset=".01" stop-color="#fcf84a"/><stop offset=".11" stop-color="#a7eb62"/><stop offset=".21" stop-color="#5fe077"/><stop offset=".27" stop-color="#32da84"/><stop offset=".31" stop-color="#21d789"/><stop offset=".58" stop-color="#21d789"/><stop offset=".6" stop-color="#21d789"/><stop offset=".69" stop-color="#20d68c"/><stop offset=".76" stop-color="#1ed497"/><stop offset=".83" stop-color="#19d1a9"/><stop offset=".9" stop-color="#13ccc2"/><stop offset=".97" stop-color="#0bc6e1"/><stop offset="1" stop-color="#07c3f2"/></linearGradient><linearGradient id="c" x1="42.229889%" x2="61.179494%" y1="115.966514%" y2="22.252664%"><stop offset="0" stop-color="#21d789"/><stop offset=".16" stop-color="#24d888"/><stop offset=".3" stop-color="#2fd985"/><stop offset=".43" stop-color="#41dc80"/><stop offset=".55" stop-color="#5ae079"/><stop offset=".67" stop-color="#7ae46f"/><stop offset=".79" stop-color="#a1ea64"/><stop offset=".9" stop-color="#cff157"/><stop offset="1" stop-color="#fcf84a"/></linearGradient><linearGradient id="d" x1="-9.711365%" x2="118.64101%" y1="144.549783%" y2="8.291748%"><stop offset="0" stop-color="#21d789"/><stop offset=".09" stop-color="#23d986"/><stop offset=".17" stop-color="#2ade7b"/><stop offset=".25" stop-color="#36e669"/><stop offset=".27" stop-color="#3bea62"/><stop offset=".35" stop-color="#47eb61"/><stop offset=".49" stop-color="#67ed5d"/><stop offset=".69" stop-color="#9af156"/><stop offset=".92" stop-color="#e0f64d"/><stop offset="1" stop-color="#fcf84a"/></linearGradient><linearGradient id="e" x1="105.92021%" x2="-8.039654%" y1="50.480568%" y2="49.366207%"><stop offset=".39" stop-color="#fcf84a"/><stop offset=".46" stop-color="#ecf74c"/><stop offset=".61" stop-color="#c1f451"/><stop offset=".82" stop-color="#7eef5a"/><stop offset="1" stop-color="#3bea62"/></linearGradient><path d="m179.493333 40.4 74.8 62.213333-26.933333 54.8-45.093333-12.506666h-39.013334z" fill="url(#a)"/><path d="m104.133333 80.8-14.4799997 76.613333-1.3866666 26.026667-36.5066667 15.813333-51.76 5.573334 15.7066667-165.5200003 93.7866663-39.3066667 57.786667 37.8933333z" fill="url(#b)"/><path d="m104.133333 80.8 7.04 147.626667-23.3866663 27.573333-87.7866667-51.173333 72.08-107.4133337z" fill="url(#c)"/><path d="m200.72 70.0266667h-88.693333l78.373333-70.0266667z" fill="url(#d)"/><path d="m256 229.013333-78.08 26.506667-103.9733333-29.28 30.1866663-145.44 12.053334-10.7733333 63.306666-5.9466667-5.733333 63.573333 50.346667-19.52z" fill="url(#e)"/><path d="m48 48h160v160h-160z"/><path d="m67.9466667 177.76h60.0000003v10h-60.0000003zm.0533333-109.76h24.5333333c14.1503997 0 22.7861037 8.311248 22.9574027 20.3539327l.002597.5260673c0 13.866667-10.8 21.066667-24.2399997 21.066667h-9.92v17.973333h-13.3333333zm23.6266667 30.2133333c6.4750282 0 10.3214783-3.7882447 10.4500063-8.806042l.003327-.4206246c0-5.92-4.1066667-9.0933334-10.6666667-9.0933334h-10.08v18.32zm31.0133333-.0533333v-.16c-.155825-8.3068947 3.092055-16.3162119 8.98957-22.1683997 5.897514-5.8521878 13.931651-9.0381777 22.237097-8.818267 8.832943-.4466029 17.434018 2.9122819 23.626666 9.2266667l-8.373333 9.68c-4.030392-4.1736266-9.533783-6.6046897-15.333333-6.7733333-9.994371 0-17.22454 8.2143703-17.383977 18.3251447l-.00269.5281886c0 10.266667 7.12 18.826667 17.386667 18.826667 6.230303 0 10.256749-2.203857 14.483546-5.870273l.635823-.560839c.212642-.190541.426085-.384646.640631-.582222l8.373333 8.453334c-6.110354 7.143736-15.168495 11.077782-24.56 10.666666-8.194099.123909-16.088214-3.080222-21.877952-8.880011-5.789737-5.799789-8.98017-13.699451-8.842048-21.893322z" fill="#fff"/></svg>

<?xml version="1.0" encoding="UTF-8"?>
<svg width="256px" height="256px" viewBox="0 0 256 256" version="1.1" xmlns="http://www.w3.org/2000/svg" preserveAspectRatio="xMidYMid">
    <title>PyCharm</title>
    <defs>
        <linearGradient x1="-46.685879%" y1="50%" x2="90.5139289%" y2="50%" id="pycharmLinearGradient-1">
            <stop stop-color="#21D789" offset="0%"></stop>
            <stop stop-color="#07C3F2" offset="100%"></stop>
        </linearGradient>
        <linearGradient x1="-19.1597915%" y1="105.481057%" x2="105.922196%" y2="-7.57713839%" id="pycharmLinearGradient-2">
            <stop stop-color="#FCF84A" offset="1%"></stop>
            <stop stop-color="#A7EB62" offset="11%"></stop>
            <stop stop-color="#5FE077" offset="21%"></stop>
            <stop stop-color="#32DA84" offset="27%"></stop>
            <stop stop-color="#21D789" offset="31%"></stop>
            <stop stop-color="#21D789" offset="58%"></stop>
            <stop stop-color="#21D789" offset="60%"></stop>
            <stop stop-color="#20D68C" offset="69%"></stop>
            <stop stop-color="#1ED497" offset="76%"></stop>
            <stop stop-color="#19D1A9" offset="83%"></stop>
            <stop stop-color="#13CCC2" offset="90%"></stop>
            <stop stop-color="#0BC6E1" offset="97%"></stop>
            <stop stop-color="#07C3F2" offset="100%"></stop>
        </linearGradient>
        <linearGradient x1="42.2298893%" y1="115.966514%" x2="61.1794942%" y2="22.2526636%" id="pycharmLinearGradient-3">
            <stop stop-color="#21D789" offset="0%"></stop>
            <stop stop-color="#24D888" offset="16%"></stop>
            <stop stop-color="#2FD985" offset="30%"></stop>
            <stop stop-color="#41DC80" offset="43%"></stop>
            <stop stop-color="#5AE079" offset="55%"></stop>
            <stop stop-color="#7AE46F" offset="67%"></stop>
            <stop stop-color="#A1EA64" offset="79%"></stop>
            <stop stop-color="#CFF157" offset="90%"></stop>
            <stop stop-color="#FCF84A" offset="100%"></stop>
        </linearGradient>
        <linearGradient x1="-9.711365%" y1="144.549783%" x2="118.64101%" y2="8.29174756%" id="pycharmLinearGradient-4">
            <stop stop-color="#21D789" offset="0%"></stop>
            <stop stop-color="#23D986" offset="9%"></stop>
            <stop stop-color="#2ADE7B" offset="17%"></stop>
            <stop stop-color="#36E669" offset="25%"></stop>
            <stop stop-color="#3BEA62" offset="27%"></stop>
            <stop stop-color="#47EB61" offset="35%"></stop>
            <stop stop-color="#67ED5D" offset="49%"></stop>
            <stop stop-color="#9AF156" offset="69%"></stop>
            <stop stop-color="#E0F64D" offset="92%"></stop>
            <stop stop-color="#FCF84A" offset="100%"></stop>
        </linearGradient>
        <linearGradient x1="105.92021%" y1="50.4805683%" x2="-8.03965366%" y2="49.366207%" id="pycharmLinearGradient-5">
            <stop stop-color="#FCF84A" offset="39%"></stop>
            <stop stop-color="#ECF74C" offset="46%"></stop>
            <stop stop-color="#C1F451" offset="61%"></stop>
            <stop stop-color="#7EEF5A" offset="82%"></stop>
            <stop stop-color="#3BEA62" offset="100%"></stop>
        </linearGradient>
    </defs>
    <g>
        <polygon fill="url(#pycharmLinearGradient-1)" points="179.493333 40.4 254.293333 102.613333 227.36 157.413333 182.266667 144.906667 143.253333 144.906667"></polygon>
        <polygon fill="url(#pycharmLinearGradient-2)" points="104.133333 80.8 89.6533333 157.413333 88.2666667 183.44 51.76 199.253333 0 204.826667 15.7066667 39.3066667 109.493333 0 167.28 37.8933333"></polygon>
        <polygon fill="url(#pycharmLinearGradient-3)" points="104.133333 80.8 111.173333 228.426667 87.7866667 256 1.42108547e-14 204.826667 72.08 97.4133333"></polygon>
        <polygon fill="url(#pycharmLinearGradient-4)" points="200.72 70.0266667 112.026667 70.0266667 190.4 0"></polygon>
        <polygon fill="url(#pycharmLinearGradient-5)" points="256 229.013333 177.92 255.52 73.9466667 226.24 104.133333 80.8 116.186667 70.0266667 179.493333 64.08 173.76 127.653333 224.106667 108.133333"></polygon>
        <polygon fill="#000000" points="48 48 208 48 208 208 48 208"></polygon>
        <path d="M67.9466667,177.76 L127.946667,177.76 L127.946667,187.76 L67.9466667,187.76 L67.9466667,177.76 Z M68,68 L92.5333333,68 C106.683733,68 115.319437,76.311248 115.490736,88.3539327 L115.493333,88.88 C115.493333,102.746667 104.693333,109.946667 91.2533333,109.946667 L81.3333333,109.946667 L81.3333333,127.92 L68,127.92 L68,68 Z M91.6266667,98.2133333 C98.1016949,98.2133333 101.948145,94.4250886 102.076673,89.4072913 L102.08,88.9866667 C102.08,83.0666667 97.9733333,79.8933333 91.4133333,79.8933333 L81.3333333,79.8933333 L81.3333333,98.2133333 L91.6266667,98.2133333 Z M122.64,98.16 L122.64,98 C122.484175,89.6931053 125.732055,81.6837881 131.62957,75.8316003 C137.527084,69.9794125 145.561221,66.7934226 153.866667,67.0133333 C162.69961,66.5667304 171.300685,69.9256152 177.493333,76.24 L169.12,85.92 C165.089608,81.7463734 159.586217,79.3153103 153.786667,79.1466667 C143.792296,79.1466667 136.562127,87.361037 136.40269,97.4718114 L136.4,98 C136.4,108.266667 143.52,116.826667 153.786667,116.826667 C160.01697,116.826667 164.043416,114.62281 168.270213,110.956394 L168.906036,110.395555 C169.118678,110.205014 169.332121,110.010909 169.546667,109.813333 L177.92,118.266667 C171.809646,125.410403 162.751505,129.344449 153.36,128.933333 C145.165901,129.057242 137.271786,125.853111 131.482048,120.053322 C125.692311,114.253533 122.501878,106.353871 122.64,98.16 Z" fill="#FFFFFF"></path>
    </g>
</svg>
